outputs/icons/editor/bullet_list_round.svg

<svg xmlns="http://www.w3.org/2000/svg" width="1200" height="1200" fill="none"><g clip-path="url(#a)"><path fill="#000" d="M200 525c-41.5 0-75 33.5-75 75s33.5 75 75 75 75-33.5 75-75-33.5-75-75-75m0-300c-41.5 0-75 33.5-75 75s33.5 75 75 75 75-33.5 75-75-33.5-75-75-75m0 600c-41.5 0-75 34-75 75s34 75 75 75 75-34 75-75-33.5-75-75-75m200 125h600c27.5 0 50-22.5 50-50s-22.5-50-50-50H400c-27.5 0-50 22.5-50 50s22.5 50 50 50m0-300h600c27.5 0 50-22.5 50-50s-22.5-50-50-50H400c-27.5 0-50 22.5-50 50s22.5 50 50 50m-50-350c0 27.5 22.5 50 50 50h600c27.5 0 50-22.5 50-50s-22.5-50-50-50H400c-27.5 0-50 22.5-50 50"/></g><defs><clipPath id="a"><path fill="#fff" d="M0 0h1200v1200H0z"/></clipPath></defs></svg>

<svg width="1200" height="1200" viewBox="0 0 1200 1200" fill="none" xmlns="http://www.w3.org/2000/svg"><g clip-path="url(#clip0_238_232)"><path d="M200 525C158.5 525 125 558.5 125 600C125 641.5 158.5 675 200 675C241.5 675 275 641.5 275 600C275 558.5 241.5 525 200 525ZM200 225C158.5 225 125 258.5 125 300C125 341.5 158.5 375 200 375C241.5 375 275 341.5 275 300C275 258.5 241.5 225 200 225ZM200 825C158.5 825 125 859 125 900C125 941 159 975 200 975C241 975 275 941 275 900C275 859 241.5 825 200 825ZM400 950H1000C1027.5 950 1050 927.5 1050 900C1050 872.5 1027.5 850 1000 850H400C372.5 850 350 872.5 350 900C350 927.5 372.5 950 400 950ZM400 650H1000C1027.5 650 1050 627.5 1050 600C1050 572.5 1027.5 550 1000 550H400C372.5 550 350 572.5 350 600C350 627.5 372.5 650 400 650ZM350 300C350 327.5 372.5 350 400 350H1000C1027.5 350 1050 327.5 1050 300C1050 272.5 1027.5 250 1000 250H400C372.5 250 350 272.5 350 300Z" fill="#1D1E23"/></g><defs><clipPath id="clip0_238_232"><path width="24" fill="white" d="M0 0H1200V1200H0V0z"/></clipPath></defs></svg>
